X:3
T:Tabhair dom do l\'amh
T:Give Me Your Hand
R:air
C:Ruaidhr\'i Dall \'O Cath\'ain (c. 1570 - 1650)
Z:id:hn-air-3
M:3/4
L:1/8
Q:1/4=160
K:G
D2 | E2G2G2 | G4D2 | E2G2G2 | G4D2 | E2G2G2 | G2A2B2 | 
B2e2d2 | B4AG | A2A2ed | B2B2dB | A2ABAG | E4D2 | 
E2G2G2 | G4D2 | E2G2G2 | G4 || D2 | E2G2G2 | G2A2B2 | 
dedBAB | G4D2 | E2G2G2 | G2A2B2 | B2e2d2 | B4AG | 
A2A2ed | B2B2dB | A3Bcd | e4dB | d2d2e2 | g4ed | 
e2e2g2 | a4de | g2g2de | g2g2de | g2g2a2 | b6 || 
b2b2b2 | b4ag | a2agab | a4gf | e2e2ge | d2d2ed | 
B2B2dB | A4BA | G2GABd | =f4ed | e2e2g2 | e4dB | 
d2d2ed | B2B2dB | A2AcBA | G4 || 

